X:1
T:Hugo Wolf 1860 – 1903
T:Text: Josef von Eichendorff 1788 – 1857 „Der Einsiedler“
T:Resignation
%%score [ 1 2 3 4 ]
L:1/8
Q:1/4=70
M:4/4
K:F
V:1 treble nm="Sopran"
V:2 treble nm="Alt"
V:3 treble-8 nm="Tenor"
V:4 bass nm="Bass"
V:1
"^Mässig langsam"!p! c2 | A3 A!<(! B2!>(! d2!<)! | (d2!>)! c)B A2!pp! F2 | F2 F2 F2 F2 | %4
w: Komm,|Trost der Welt, du|stil- * le Nacht! Wie|steigst du von den|
 G3 A G2 B2 | A3 E ^C2 ^D2 | (E3 ^F) E2!p! A2 | A3 A G2 G2 | ^F3 F!<(! =F2 B2-!<)! | %9
w: Ber- gen sacht, die|Lüf- te al- le|schla- * fen; ein|Schif- fer nur noch,|wan- der- müd', singt|
"^cresc." B2 BB ^c2 c2 | _e3 e __e2 _d2 |!f! _d3!>(! B _G2 _A2!>)! |!p! F4 ^F2 z2 | %13
w: * ü- bers Meer sein|A- bend- lied zu|Got- tes Lob im|Ha- fen.|
 z4 z2!p!!<(! A=B!<)! | c3!>(! C =B,2!>)! A2 | A3 ^G G2!<(! =B^c!<)! | d3!>(! d ^c2!>)! =B2 | %17
w: Die *|Jah- re wie die|Wol- ken gehn und *|las- sen mich hier|
 (=B2 _B)A A2!<(! _A_d!<)! |!mf! _d3 _c!>(! B2 _A2!>)! | _G3 F _E2 !fermata!z!pp! _D | %20
w: ein \- sam stehn, die *|Welt hat mich ver-|ges- * sen. Da|
"^(sehr zart)" _D2 _G2 (B _g2) f | _e3 _d!<(! _c2 c2-!<)! | c2!>(! B_A!>)! _G2 F2 | %23
w: tratst du wun- * der-|bar zu mir als|* ich beim Wal- des-|
!>(! B3 F!>)! _G2!pp! G2 | _G3 G G2 F2 |"^rit." F2 EF E4 | z4 z2"^a tempo" c2 | %27
w: rau- schen hier ge-|dan- ken- voll ge-|ses \- * sen.|O|
 A3 A!<(! B2 d2!<)! |!>(! (d2 c)!>)!B A2!pp! F2 | F2 F2 F2 F2 | G3 A G2 B2 | A3 E ^C2 ^D2 | %32
w: Trost der Welt, du|stil- * le Nacht! Der|Tag hat mich so|müd' ge- macht, das|wei- te Meer schon|
 E3 ^F E2!p! A2 | A2 A3 G!<(! G2 | B2 A!<)!G A4 |!f! c2!<(! cc d2 d2!<)! |!ff! d3 d!>(! e2 e2!>)! | %37
w: dun- * kelt; laß|aus- ruhn mich von|Lust und * Noth,|bis daß das ew'- ge|Mor- gen- roth den|
!p! f3 e ed c2 | (c2 B2 c/B/) A2!pp! F | F3 F cB!<(! A2 |!>(! G4!<)! F2!>)! z2 |] %41
w: stil- len Wald * durch-|fun- * * * kelt, den|stil- len Wald * durch-|fun- kelt.|
V:2
!p! C2 | CDEF!<(! BA!<)!!>(! GF!>)! | FEFG GF!pp! A,2 | B,2 A,2 D2 D2 | FE F2 C2 C2 | %5
w: Komm,|Trost * * der Welt * du *|stil * * le Nacht! * Wie|steigst du von den|Ber \- gen sacht, die|
w: |||||
 ^C3 C C2 =B,2 | (=B,3 D- D^C)C!p!E | F3 F _E2 E2 | D3 D!<(! D_E =EF!<)! |"^cresc." _G2 F2 F2 _F2 | %10
w: Lüf- te al- le|schla- * * * fen; ein||||
w: ||Schif- fer nur noch|wan- der- müd * singt *|ü- bers Meer sein|
 _E3 E _G2 _c2 |!f! B3!>(! _G _E2 E2!>)! |!p! (_E2 _D_C) B,2 z2 | z8 | %14
w: ||||
w: A- bend- lied zu|Got- tes Lob im|Ha- * * fen.||
 z2!<(! ^DE!<)!!>(! ^F3 F!>)! |!p! ^E3 E E2 ^F2 |!<(! ^F2 ^G!<)!A =B2 ^E!>(!F | %17
w: Die * Jah- re|wie die Wol- ken|gehn und * las- sen *|
w: |||
 G2!>)! G2 G!<(!^F =F2!<)! |!mf! F_F _E2!>(! DDE=F!>)! | (_E2 D2) E2 !fermata!z!pp! _C | %20
w: mich hier ein \- sam|stehn * die Welt hat mich ver-|ges- * sen. *|
w: ||* * * Da|
 B,2 _D2 _G2 G2 | _G2 B2!<(! _c2 _F=F!<)! | _G2!>(! F_E!>)! E2 _C2 | %23
w: |* * * als *|ich beim * Wal- des-|
w: tratst du wun- der-|bar zu mir, * *||
!>(! !courtesy!=D2 B,2!>)! B,2!pp! F_E | _D3 _E D2 D2 | (C3 =B,) _B,4 | z4 z2 C2 | %27
w: rau- schen hier ge- *|dan- ken- voll ge-|ses- * sen.|O|
w: ||||
 CDEF!<(! BA GF!<)! |!>(! FEF!>)!G GF!pp! C2 | B,2 A,2 D2 D2 | FE F2 C2 C2 | ^C3 C C2 =B,2 | %32
w: Trost * * der Welt, * du *|stil * * le Nacht! * *||||
w: |* * * * * * Der|Tag hat mich so|müd * ge- macht, das|wei- te Meer schon|
 (=B,3 D- D^C)!p! CE | F3 F F2!<(! F2 | F2 E2!<)! (G2 F2) |!f! F2!<(! FF F2 B2!<)! | %36
w: * * * * * laß|aus- ruhn mich von|Lust und Noth, *||
w: dun- * * * kelt; *|||bis daß das ew'- ge|
!ff! =B3 G!>(! _A2 G2!>)! |!p! F3 F F2 F2 | (D2 E2) G2!pp! F2 | C2 D_E F2 F2 | %40
w: ||||
w: Mor- gen- roth den|stil- len Wald durch-|fun \- kelt, den|stil- len * Wald durch-|
!<(! (FE/D/!<)!!>(!CB,) A,2!>)! z2 |] %41
w: |
w: fun * * * * kelt.|
V:3
!p! c2 | c3 c!<(! f2!>(! B2!<)! | (B2!>)! G)E A2!pp! fe | ed dc (c B2) A | c2 =B2 _Bc d^d | %5
w: Komm,|Trost der Welt, du|stil- * le Nacht! Wie *|steigst * du * von * den|Ber- gen sacht, * die *|
w: |||||
 ^fe^cA A^A=B=A | A^G/^F/EG A2!p! ^c2 | !courtesy!=c3 c B2 B2 | =B2 A2!<(! ^GA _B_c!<)! | %9
w: Lüf * * te al * * le|schla * * * * fen; ein|||
w: ||Schif- fer nur noch|wan- der- müd' * singt *|
"^cresc." _d2 d2 _G2 G2 | _G2 G2 __B2 _Af |!f! _g3!>(! _d B2 _c2!>)! |!p! _A4 _G2 z2 | %13
w: ||||
w: ü- bers Meer sein|A- bend- lied zu *|Got- tes Lob im|Ha- fen.|
 z2!p! ^F!<(!^G A2!<)! c=B | A3!>(! G ^F2!>)! =B2 | =B2!<(! B^c d2!<)! d2 | %16
w: Die * Ja- re *|wie die Wol- ken|gehn und * las- sen|
w: |||
 =B2 B2 _A2!<(! ^cd!<)! |!>(! _e2 d2!>)! ^c!<(!=c =B2!<)! |!mf! !courtesy!_B2 _c2!>(! _G4 | %19
w: mich hier ein- sam *|stehn, die Welt * hat|mich ver- ges-|
w: |||
 B2!>)! _A2 _G2 !fermata!z!pp! F | _G2 B2 _d2 B2 | _c2 _f2!<(! f_e c2!<)! | _e2!>(! de!>)! _A2 A2 | %23
w: * * sen. *||||
w: * * * Da|tratst du wun- der-|bar zu mir, * als|ich beim * Wal- des-|
!>(! _A3 A!>)! _G2!pp! G2 | B3 _G B2 B2 | (!courtesy!=A2 G2) G4 | z4 z2 c2 | c3 c!<(! f2 B2!<)! | %28
w: |||O|Trost der Welt, du|
w: rau- schen hier ge-|dan- ken- voll ge-|ses- * sen.|||
!>(! (B2 G)!>)!E A2!pp! fe | ed dc (c B2) A | c3 =B _Bc d^d | ^fe ^cA A^A =B=A | %32
w: stil- * le Nacht! * *||||
w: * * * * Der *|Tag * hat * mich * so|müd ge- macht, * das *|wei * te * Meer * schon *|
 A^G/^F/EG A2!p! ^c2 | !courtesy!=c3 c d2!<(! =B2 | !courtesy!_B2 B2!<)! A4 | %35
w: |||
w: dun * * * * kelt; laß|aus- ruhn mich von|Lust und Noth,|
!f! A2!<(! AA B2 f2!<)! |!ff! g3 =B!>(! B2 _B2!>)! |!p! c3 A B2 F2 | F2 G2 E2!pp! A2 | %39
w: ||||
w: bis daß das ew'- ge|Mor- gen- roth den|stil- len Wald durch-|fun \- kelt, den|
 A3 A d2!<(! F2 | c2!<)!!>(! E2 F2!>)! z2 |] %41
w: ||
w: stil- len Wald durch-|fun \- kelt.|
V:4
!p! C2 | F,3 _E,!<(! D,2!>(! B,,2!<)! | (G,,2!>)! C,)^C, D,2!pp! F,,2 | G,,2 A,,2 B,,2 =B,,2 | %4
w: Komm,|Trost der Welt, du|stil- * le Nacht! Wie|steigst du von den|
w: ||||
 C,2 D,2 E,2 z2 | z2 z A, ^F,2 =F,2 | E,4 A,,2!p! A,2 | F,2 F,,2 G,,2 G,,2 | %8
w: Ber- gen sacht,|die Lüf- te|schla- fen; ein||
w: |||Schif- fer nur noch|
 (^G,,2 A,,)A,,!<(! B,,=B,,/C,/ _D,2!<)! |"^cresc." _G,,2 G,,2 B,,2 B,,2 | _C,2 C,2 =C,2 _D,2 | %11
w: |||
w: wan- * der müd' * * singt|ü- bers Meer sein|A- bend- lied zu|
!f! _G,3!>(! F, _E,2 _C,2!>)! |!p! _D,4 _G,,2 ^F,,^G,, |!<(! A,,3 ^B,, ^C,2 ^D,2!<)! | %14
w: |* * Die *|Ja- re wie die|
w: Got- tes Lob im|Ha- fen. * *||
 ^F,3!>(! E, ^D,2!>)!!<(! =B,,^C,!<)! |!>(! D,2 ^C,2!>)! =B,,2 A,,2 | ^G,,2 ^F,,2 ^E,,2 G,,2 | %17
w: Wol- ken gehn und *|las- sen mich hier|ein- sam stehn, die|
w: |||
 A,,2 E,2!<(! _E,2 D,!<)!_D, |!mf! _G,2!>(! _C,6 | B,,4!>)! _C,2 !fermata!z!pp! _D, | %20
w: Welt hat mich ver- *|ges- *|* sen. Da|
w: |||
 _G,2 G,2 G,2 _E,2 | _C,2 _G,2!<(! (G,2 _A,2)!<)! | !courtesy!=A,2!>(! B,_C!>)! =C2 _D2 | %23
w: tratst du wun- der-|bar zu mir, *|als ich beim Wal- des-|
w: |||
!>(! B,,2 D,2!>)! _E,2!pp! =B,,2 | _G,,3 _C, G,,2 B,,2 | (F,,2 C,!courtesy!=G,,) C,4 | z4 z2 C2 | %27
w: rau- schen hier ge-|dan- ken- voll ge-|ses * * sen.|O|
w: ||||
 F,3 _E,!<(! D,2 B,,2!<)! |!>(! (G,,2 C,)!>)!^C, D,2!pp! F,,2 | G,,2 A,,2 B,,2 =B,,2 | %30
w: Trost der Welt, du|stil- * le Nacht! *||
w: |* * * * Der|Tag hat mich so|
 C,2 D,2 E,2 z2 | z2 z A, ^F,2 =F,2 | E,4 A,,2!p! A,,2 | F,,2 A,,2 =B,,2!<(! D,2 | %34
w: |das Meer schon|dun- kelt; laß|aus- ruhn mich von|
w: müd ge- macht,||||
 G,,2 C,2!<)! ^C,2 D,E, |!f! F,2!<(! F,2 B,2 B,2!<)! |!ff! G,3 G,!>(! E,2 C,2!>)! | %37
w: Lust und Noth, bis *|daß das ew'- ge||
w: ||Mor- gen- roth den|
!p! A,,3 C, B,,2 A,,2 | G,,2 C,2 ^C,2!pp! D,2 | (_E,2 D,)^C, D,2 =C,A,,/!<(!B,,/ | %40
w: |||
w: stil- len Wald durch-|fun \- kelt, den|stil \- len Wald durch * *|
!>(! C,4!<)! F,,2!>)! z2 |] %41
w: |
w: fun- kelt.|

